source/img/services/services-nav/sale-icon-active.svg

<svg width="32" height="32" viewBox="0 0 32 32" fill="none" xmlns="http://www.w3.org/2000/svg">
<path d="M18.649 23.4966C16.1531 24.0314 14.192 23.7194 13.5234 23.4966V25.5022C16.0194 26.9285 17.9804 26.0965 18.649 25.5022V23.4966Z" fill="url(#paint0_linear)"/>
<path d="M11.2949 20.599L9.06641 16.8105C14.4148 18.7716 21.1746 17.702 23.5517 16.8105L20.8775 20.599C16.5988 21.847 12.7063 21.119 11.2949 20.599Z" fill="url(#paint1_linear)"/>
<path d="M4.83057 10.7938L6.83623 13.9138C10.5801 16.0531 20.4301 15.4737 24.6643 14.5823L27.7842 10.3481C19.2268 13.9138 8.91617 12.131 4.83057 10.7938Z" fill="url(#paint2_linear)"/>
<path fill-rule="evenodd" clip-rule="evenodd" d="M15.9999 6.17996C15.3337 6.17996 14.6799 6.19377 14.0426 6.22033C13.8003 6.23043 13.5957 6.04252 13.5856 5.80063C13.5755 5.55873 13.7637 5.35445 14.0059 5.34436C14.6556 5.31728 15.3216 5.30322 15.9999 5.30322C19.4816 5.30322 22.6491 5.67358 24.9593 6.28062C26.1112 6.58329 27.0749 6.95114 27.7611 7.37741C28.4239 7.78914 28.9515 8.33573 28.9515 9.02937C28.9515 9.72301 28.4239 10.2696 27.7611 10.6813C27.0749 11.1076 26.1112 11.4754 24.9593 11.7781C22.6491 12.3852 19.4816 12.7555 15.9999 12.7555C12.5182 12.7555 9.35074 12.3852 7.04048 11.7781C5.8886 11.4754 4.9249 11.1076 4.23874 10.6813C3.57597 10.2696 3.04834 9.72301 3.04834 9.02937C3.04834 8.46782 3.39757 8.00287 3.86379 7.6378C4.33629 7.26782 4.99804 6.94308 5.78914 6.66225C7.37615 6.09889 9.58448 5.67745 12.1212 5.46265C12.3629 5.44219 12.5753 5.62117 12.5958 5.86241C12.6163 6.10365 12.437 6.31579 12.1954 6.33625C9.70114 6.54746 7.57399 6.95916 6.08328 7.48834C5.33552 7.75378 4.77286 8.04016 4.40565 8.3277C4.03217 8.62014 3.92641 8.8591 3.92641 9.02937C3.92641 9.24362 4.09904 9.56196 4.7026 9.93691C5.28278 10.2973 6.1515 10.6379 7.26395 10.9302C9.48233 11.5131 12.5711 11.8788 15.9999 11.8788C19.4287 11.8788 22.5175 11.5131 24.7359 10.9302C25.8483 10.6379 26.717 10.2973 27.2972 9.93691C27.9008 9.56196 28.0734 9.24362 28.0734 9.02937C28.0734 8.81512 27.9008 8.49678 27.2972 8.12183C26.717 7.7614 25.8483 7.4208 24.7359 7.1285C22.5175 6.5456 19.4287 6.17996 15.9999 6.17996Z" fill="#0A3D76"/>
<path fill-rule="evenodd" clip-rule="evenodd" d="M28.0985 9.76113C28.3 9.8958 28.354 10.1681 28.2191 10.3693L19.1833 23.8481V24.9854C19.1833 25.6538 18.7454 26.2731 18.0653 26.44C16.6447 26.7885 15.5772 26.777 14.1664 26.4371C13.4824 26.2724 13.0368 25.6516 13.0368 24.977V24.0673L4.00099 10.5885C3.86612 10.3873 3.92013 10.115 4.12163 9.98032C4.32313 9.84565 4.59581 9.89958 4.73069 10.1008L13.8407 23.6902C13.8891 23.7624 13.9149 23.8473 13.9149 23.9341V24.977C13.9149 25.2748 14.1094 25.5215 14.3723 25.5848C15.6525 25.8932 16.5774 25.9022 17.8558 25.5886C18.1137 25.5253 18.3052 25.2815 18.3052 24.9854V23.7149C18.3052 23.6281 18.3311 23.5432 18.3794 23.4711L27.4894 9.88159C27.6243 9.68039 27.897 9.62646 28.0985 9.76113Z" fill="#0A3D76"/>
<path fill-rule="evenodd" clip-rule="evenodd" d="M25.4817 13.841C25.6088 14.0472 25.5444 14.3172 25.3379 14.4441C24.5511 14.9275 23.324 15.288 21.8879 15.5353C20.4388 15.7849 18.731 15.9267 16.9495 15.9475C13.3972 15.9889 9.49229 15.5493 6.729 14.4795L7.04645 13.662C9.66137 14.6744 13.4396 15.1116 16.9393 15.0708C18.6839 15.0505 20.3443 14.9115 21.7386 14.6713C23.146 14.4289 24.2375 14.0907 24.8777 13.6974C25.0842 13.5705 25.3546 13.6348 25.4817 13.841ZM8.66641 17.1103C8.74308 16.8806 8.99172 16.7565 9.22175 16.8331C12.4278 17.9001 16.0856 18.1526 19.6603 17.5822C19.8997 17.544 20.1248 17.7068 20.1631 17.9459C20.2014 18.1849 20.0383 18.4097 19.7989 18.4479C16.0976 19.0386 12.296 18.7804 8.94408 17.6648C8.71405 17.5882 8.58973 17.34 8.66641 17.1103ZM23.4417 17.1193C23.5134 17.3506 23.3838 17.5961 23.1522 17.6677C22.5986 17.8388 22.039 17.9897 21.4753 18.1203C21.2391 18.1751 21.0031 18.0283 20.9483 17.7925C20.8935 17.5566 21.0405 17.3211 21.2767 17.2663C21.8201 17.1403 22.3594 16.9949 22.8925 16.8302C23.1242 16.7586 23.3701 16.888 23.4417 17.1193ZM16.3715 21.5915C14.5265 21.6056 12.5499 21.2968 10.7903 20.6167L11.1073 19.7991C12.7503 20.4342 14.6152 20.7281 16.3648 20.7148C18.1194 20.7014 19.7214 20.3794 20.8503 19.8158L21.243 20.6C19.9572 21.2419 18.2116 21.5775 16.3715 21.5915ZM14.4902 24.2926C13.8998 24.1823 13.3385 24.0116 12.8486 23.7834L13.2199 22.9889C13.6318 23.1808 14.1205 23.3316 14.6516 23.4308C14.8899 23.4753 15.047 23.7043 15.0024 23.9423C14.9579 24.1803 14.7285 24.3371 14.4902 24.2926ZM19.2674 23.7782C18.274 24.2741 17.0496 24.47 15.8761 24.4383C15.6337 24.4318 15.4426 24.2303 15.4491 23.9883C15.4557 23.7462 15.6575 23.5554 15.8999 23.5619C16.9737 23.5909 18.0452 23.4081 18.8747 22.994L19.2674 23.7782Z" fill="#0A3D76"/>
<defs>
<linearGradient id="paint0_linear" x1="18.491" y1="24.8932" x2="13.6804" y2="24.7036" gradientUnits="userSpaceOnUse">
<stop stop-color="#A62E41"/>
<stop offset="1" stop-color="#E13152"/>
</linearGradient>
<linearGradient id="paint1_linear" x1="23.1052" y1="19.0493" x2="9.55413" y2="18.108" gradientUnits="userSpaceOnUse">
<stop stop-color="#A62E41"/>
<stop offset="1" stop-color="#E13152"/>
</linearGradient>
<linearGradient id="paint2_linear" x1="27.0767" y1="12.8665" x2="5.70445" y2="10.7752" gradientUnits="userSpaceOnUse">
<stop stop-color="#A62E41"/>
<stop offset="1" stop-color="#E13152"/>
</linearGradient>
</defs>
</svg>

<svg width="32" height="32" fill="none" xmlns="http://www.w3.org/2000/svg"><path d="M18.649 23.497c-2.496.534-4.457.222-5.126 0v2.005c2.496 1.427 4.457.595 5.126 0v-2.005z" fill="url(#paint0_linear)"/><path d="M11.295 20.599l-2.229-3.788c5.349 1.96 12.109.891 14.486 0l-2.674 3.788c-4.28 1.248-8.172.52-9.583 0z" fill="url(#paint1_linear)"/><path d="M4.83 10.794l2.006 3.12c3.744 2.14 13.594 1.56 17.828.668l3.12-4.234c-8.557 3.566-18.868 1.783-22.953.446z" fill="url(#paint2_linear)"/><path fill-rule="evenodd" clip-rule="evenodd" d="M16 6.18c-.666 0-1.32.014-1.957.04a.439.439 0 11-.037-.876c.65-.027 1.316-.04 1.994-.04 3.482 0 6.65.37 8.96.977 1.151.302 2.115.67 2.801 1.096.663.412 1.19.959 1.19 1.652 0 .694-.527 1.24-1.19 1.652-.686.427-1.65.794-2.802 1.097-2.31.607-5.477.977-8.96.977-3.48 0-6.648-.37-8.959-.977-1.151-.303-2.115-.67-2.801-1.097-.663-.411-1.19-.958-1.19-1.652 0-.561.349-1.026.815-1.391.472-.37 1.134-.695 1.925-.976 1.587-.563 3.795-.985 6.332-1.2a.439.439 0 11.074.874c-2.494.211-4.621.623-6.112 1.152-.747.266-1.31.552-1.677.84-.374.292-.48.531-.48.701 0 .215.173.533.777.908.58.36 1.449.7 2.561.993 2.218.583 5.307.949 8.736.949 3.429 0 6.517-.366 8.736-.949 1.112-.292 1.981-.633 2.561-.993.604-.375.776-.693.776-.908 0-.214-.172-.532-.776-.907-.58-.36-1.449-.701-2.561-.994-2.219-.582-5.307-.948-8.736-.948z" fill="#0A3D76"/><path fill-rule="evenodd" clip-rule="evenodd" d="M28.099 9.761a.438.438 0 01.12.608l-9.036 13.48v1.136c0 .669-.438 1.288-1.118 1.455-1.42.348-2.488.337-3.899-.003a1.492 1.492 0 01-1.13-1.46v-.91L4.002 10.588a.438.438 0 11.73-.487l9.11 13.59a.438.438 0 01.074.243v1.043c0 .298.194.544.457.608 1.28.308 2.205.317 3.484.004a.61.61 0 00.45-.604v-1.27a.44.44 0 01.073-.244l9.11-13.59a.44.44 0 01.61-.12z" fill="#0A3D76"/><path fill-rule="evenodd" clip-rule="evenodd" d="M25.482 13.841a.438.438 0 01-.144.603c-.787.483-2.014.844-3.45 1.091-1.45.25-3.157.392-4.939.412-3.552.042-7.457-.398-10.22-1.467l.317-.818c2.615 1.012 6.394 1.45 9.893 1.409 1.745-.02 3.405-.16 4.8-.4 1.407-.242 2.498-.58 3.139-.974a.44.44 0 01.604.144zm-16.816 3.27a.44.44 0 01.556-.278c3.206 1.067 6.864 1.32 10.438.75a.439.439 0 11.139.865c-3.701.59-7.503.332-10.855-.783a.438.438 0 01-.278-.555zm14.776.008a.438.438 0 01-.29.549c-.553.17-1.113.322-1.677.452a.439.439 0 11-.198-.854 23.322 23.322 0 001.615-.436.439.439 0 01.55.29zm-7.07 4.473c-1.845.014-3.822-.295-5.582-.975l.317-.818c1.643.635 3.508.93 5.258.916 1.754-.014 3.356-.336 4.485-.9l.393.785c-1.286.642-3.031.977-4.871.991zm-1.882 2.7a6.938 6.938 0 01-1.641-.509l.37-.794c.413.192.902.343 1.433.442a.438.438 0 11-.162.862zm4.777-.514c-.993.496-2.217.692-3.39.66a.439.439 0 11.023-.876c1.074.029 2.145-.154 2.975-.568l.392.784z" fill="#0A3D76"/><defs><linearGradient id="paint0_linear" x1="18.491" y1="24.893" x2="13.68" y2="24.704" gradientUnits="userSpaceOnUse"><stop stop-color="#A62E41"/><stop offset="1" stop-color="#E13152"/></linearGradient><linearGradient id="paint1_linear" x1="23.105" y1="19.049" x2="9.554" y2="18.108" gradientUnits="userSpaceOnUse"><stop stop-color="#A62E41"/><stop offset="1" stop-color="#E13152"/></linearGradient><linearGradient id="paint2_linear" x1="27.077" y1="12.867" x2="5.704" y2="10.775" gradientUnits="userSpaceOnUse"><stop stop-color="#A62E41"/><stop offset="1" stop-color="#E13152"/></linearGradient></defs></svg>
